app/dist/common/images/spire.svg

<svg fill="none" height="18" viewBox="0 0 18 18" width="18" xmlns="http://www.w3.org/2000/svg"><path d="m0 0h18v18h-18z" fill="#ed642a"/><path clip-rule="evenodd" d="m5 7.125c0-2.26974 1.82466-4.125 4-4.125v1.48026c-1.39445 0-2.58696 1.18421-2.58696 2.64474s1.19251 2.64474 2.58696 2.64474v1.48026c-2.17534 0-4-1.83553-4-4.125zm4 6.3946c1.4379 0 2.4896-1.1842 2.4896-2.6447 0-1.46051-1.0517-2.64472-2.4896-2.64472v-1.48027c2.2539 0 4 1.83553 4 4.12499 0 2.2697-1.7461 4.125-4 4.125z" fill="#fff" fill-rule="evenodd"/></svg>

<!-- by TradingView --><svg width="18" height="18" viewBox="0 0 18 18" fill="none" xmlns="http://www.w3.org/2000/svg">
<rect width="18" height="18" fill="#ED642A"/>
<path fill-rule="evenodd" clip-rule="evenodd" d="M5 7.125C5 4.85526 6.82466 3 9 3V4.48026C7.60555 4.48026 6.41304 5.66447 6.41304 7.125C6.41304 8.58553 7.60555 9.76974 9 9.76974V11.25C6.82466 11.25 5 9.41447 5 7.125ZM9 13.5196C10.4379 13.5196 11.4896 12.3354 11.4896 10.8749C11.4896 9.41439 10.4379 8.23018 9 8.23018V6.74991C11.2539 6.74991 13 8.58544 13 10.8749C13 13.1446 11.2539 14.9999 9 14.9999V13.5196Z" fill="white"/>
</svg>
